X: 40240
T: Tipsy Sailor, The
R: jig
M: 6/8
K: Edorian
|:D|E2 B BAB|EBB BAB|ded dcB|AFD DEF|
E2 B BAB|EBB BAB|AdB AFA|BGE E2:|
|:g|eBe gfe|Bef gfe|fdA FAd|fdf agf|
[1 eBe gfe|Bef gfe|fdf gfg|bge e2:|
[2 gba gfe|fag fed|AdB AFA|BGE E2||

